X: 42508
T: What's Up With Win
R: jig
M: 6/8
K: Dmixolydian
e2A AB/c/d|eAa ged|ceA eGe|AA/A/A Bcd|
eed eab|g2f dgf|eeA ABd|edc dgf|
e2A AB/c/d|eAa ged|ceA eGe|AA/A/A Bcd|
eed eab|g2f dgf|eeA ABd|edc def|gfe edc||
|:Aea g2f|dcA GAB|dB/c/d fda|gfd edc|
Aea g2f|dcA GAB|dB/c/d fda|gfd edc:|
a^gf f2e|ce/f/ a2c'2|bc'a ^g ab|ba^g egb|
a^gf f2e|ce/f/ a2c'2|d'd'c' bc'a|^gab bag|
a^gf f2e|ce/f/ a2c'2|bc'a ^g ab|ba^g egb|
a^gf f2e|ce/f/ a2c'2|d'fc' fbf|ba ^g egb|
e'2d' c'd'b|c'a b2<a2||

